X: 100265
M: 6/8
L: 1/8
K: Dm
(uA/G/) |\
|: z |\
vd3- d(fa) | afd gbg | ecA dfa | afd =Bed |\
c=BA dfa |afd gbg | Bgf ed^c | dDD D2 :|


